images/qr.svg

<svg xmlns="http://www.w3.org/2000/svg" role="img" viewBox="35.01 35.01 259.74 259.74"><path fill="#fff" d="M0 0v330h330V0H0z"/><path fill="#010101" d="M40 40v70h70V40H40m90 0v10h-10v60h10v10H90v20H80v10H70v10H60v10H50v10H40v10h20v10H40v10h40v-30h10v20h10v10h10v-10h-10v-10h20v-10H90v-10H80v-20h10v10h10v10h10v-10h-10v-10h20v-10h20v-10h10v-10h-10v-10h10V90h30v40h10v-10h10v20h9v10c2.398-5.715 1-13.831 1-20h10v10h10v10h-10v30h20v10h10v10h-20v-10h-20v-30c-5.309 12.652-1 35.212-1 49h-9v11h-10v-10h-10v20h20v10h-10v20h-10v-10h-10v10h-10v-20h10v-10h-10v-10h10v-11l-20 1v20h10v10h-10v20h-10v-20h-10v-10h10v-10h-10v-10h10v-10h-10v10h-10v30h10v20h-10v10h10v10h10v10h10v-20h20v-10h10v20h-20v10h30v-30h10v30h20v-10h-10v-20h10v-10h10v10h10v10h10v20h10v-20h30v-10h-40v-20h10v-10h10v10h10v-10h10v-20h-10v20h-10v-10h-10v10h-10v-20h10v-30h-20v-20h20v-10h-10v-10h10v-10h20v30h10v-30h-10v-10h-50v10h-10v-10h-20v-10h10V90h-10v20h-10V60h-10V50h30V40h-30v10h-10V40h-40m90 0v70h70V40h-70z"/><path fill="#fff" d="M50 50v50h50V50H50m80 0v60h10V90h10V80h30V60h-10V50h-40m100 0v50h50V50h-50z"/><path fill="#010101" d="M60 60v30h30V60H60m100 0v10h10V60h-10m40 0v20h10V60h-10m40 0v30h30V60h-30M140 70v10h10V70h-10m20 30v10h10v-10h-10M60 120v10H50v10H40v20h10v-10h10v-10h10v-20H60z"/><path fill="#fff" d="M100 130v10H90v10h10v-10h20v-10h-20m130 0v10h20v-10h-20z"/><path fill="#010101" d="M130 150v10h-10v10h10v-10h10v-10h-10z"/><path fill="#afecd8" d="M152 153c0 3.415-.939 8.551.603 11.682 3.135 6.361 7.282-1.184 7.397-4.682-.874 2.052-.953 3.747-1 6h-6c0-4.263.661-9.041-1-13z"/><path fill="#27639e" d="M153 153c10.988 4.611 30.043 1 42 1v41h-12c17.319 7.267 13-15.835 13-26 0-3.731 1.423-11.302-1.028-14.397C192.853 151.927 186.98 153 184 153h-31z"/><path fill="#6ea4c9" d="M195 153l1 1-1-1z"/><path fill="#011a4f" d="M153 154v12h6v-7c6.46 0 24.658-3.135 29.397 1.603C193.135 165.342 190 183.54 190 190h-7v5h12v-41h-42z"/><path fill="#27639e" d="M159 159c8.128 3.411 21.186 1 30 1-8.128-3.411-21.186-1-30-1m30 1v30c2.731-6.508 2.731-23.492 0-30z"/><path fill="#ffea08" d="M178.148 164.086c-5.042 2.506-1.269 10.299 3.704 7.828 5.042-2.506 1.269-10.299-3.704-7.828z"/><path fill="#fff" d="M60 170v20h10v-10h10v-10H60z"/><path fill="#45dbf9" d="M153 170c2.052.874 3.747.953 6 1-2.052-.874-3.747-.953-6-1z"/><path fill="#010101" d="M280 170v10h-10v10h20v-20h-10z"/><path fill="#afecd8" d="M152 171v25c2.413-5.75 2.413-19.25 0-25z"/><path fill="#04b2f5" d="M153 171v24h25v-5h-19v-19h-6z"/><path fill="#afecd8" d="M159 171c.003 3.306-.601 6.727 2 9-.718-3.007-.805-6.18-2-9z"/><path fill="#f7f3ab" d="M183 171l1 1-1-1z"/><path fill="#afecd8" d="M165 176l3-1c-1.766-.401-1.557-.289-3 1z"/><path fill="#23cc3f" d="M160 189h19v6h3c.709-4.444 2.606-5.665 7-6-.819-10.639-7.561-6.081-14-8.161-2.689-.869-4.253-3.766-7-4.508-7.37-1.992-7.997 8.163-8 12.669z"/><path fill="#9ae9c8" d="M168 175l1 1-1-1m-4 1l1 1-1-1z"/><path fill="#afecd8" d="M169 176l1 1-1-1z"/><path fill="#60e086" d="M163 177l1 1-1-1z"/><path fill="#afecd8" d="M170 177l1 1-1-1z"/><path fill="#9ae9c8" d="M171 178l1 1-1-1m1 1l1 1-1-1z"/><path fill="#6de2ac" d="M180 179l1 1-1-1z"/><path fill="#60e086" d="M182 179l1 1-1-1z"/><path fill="#6de2ac" d="M159 180l1 1-1-1z"/><path fill="#9ae9c8" d="M173 180l1 1-1-1z"/><path fill="#19c969" d="M159 181v9h20c-5.469-2.295-13.099-1-19-1-.007-2.835.098-5.387-1-8z"/><path fill="#9ae9c8" d="M174 181l1 1-1-1z"/><path fill="#afecd8" d="M177 181l1 1-1-1z"/><path fill="#9ae9c8" d="M185 181l1 1-1-1z"/><path fill="#6de2ac" d="M175.667 182.333c-.445.445.611.389.666.334.445-.445-.611-.389-.666-.334z"/><path fill="#60e086" d="M186 182l1 1-1-1z"/><path fill="#afecd8" d="M188 183l1 1-1-1z"/><path fill="#19c969" d="M183 189c2.052.874 3.747.953 6 1-2.052-.874-3.747-.953-6-1z"/><path fill="#0bc1b3" d="M178 190v5c.83-2.031.83-2.969 0-5z"/><path fill="#19c969" d="M182 190v5c.83-2.03.83-2.97 0-5z"/><path fill="#45dbf9" d="M153 195c7.169 3.008 18.239 1 26 1-7.169-3.008-18.239-1-26-1z"/><path fill="#60e086" d="M179 195c1.506.683 2.315.826 4 1-1.506-.683-2.315-.826-4-1z"/><path fill="#6ea4c9" d="M195 195l1 1-1-1z"/><path fill="#fff" d="M210 210v30h30v-30h-30z"/><path fill="#010101" d="M40 220v70h70v-70H40m180 0v10h10v-10h-10z"/><path fill="#fff" d="M50 230v50h50v-50H50z"/><path fill="#010101" d="M60 240v30h30v-30H60z"/><path fill="#fff" d="M130 260v10h10v-10h-10z"/><path fill="#010101" d="M230 280v10h10v-10h-10m50 0v10h10v-10h-10z"/></svg>

<svg id="Layer_1" data-name="Layer 1" xmlns="http://www.w3.org/2000/svg" >
<path style="fill:#ffffff; stroke:none;" d="M0 0L0 330L330 330L330 0L0 0z"/>
<path style="fill:#010101; stroke:none;" d="M40 40L40 110L110 110L110 40L40 40M130 40L130 50L120 50L120 110L130 110L130 120L90 120L90 140L80 140L80 150L70 150L70 160L60 160L60 170L50 170L50 180L40 180L40 190L60 190L60 200L40 200L40 210L80 210L80 180L90 180L90 200L100 200L100 210L110 210L110 200L100 200L100 190L120 190L120 180L90 180L90 170L80 170L80 150L90 150L90 160L100 160L100 170L110 170L110 160L100 160L100 150L120 150L120 140L140 140L140 130L150 130L150 120L140 120L140 110L150 110L150 90L180 90L180 130L190 130L190 120L200 120L200 140L209 140L209 150C211.398 144.285 210 136.169 210 130L220 130L220 140L230 140L230 150L220 150L220 180L240 180L240 190L250 190L250 200L230 200L230 190L210 190L210 160C204.691 172.652 209 195.212 209 209L200 209L200 220L190 220L190 210L180 210L180 230L200 230L200 240L190 240L190 260L180 260L180 250L170 250L170 260L160 260L160 240L170 240L170 230L160 230L160 220L170 220L170 209L150 210L150 230L160 230L160 240L150 240L150 260L140 260L140 240L130 240L130 230L140 230L140 220L130 220L130 210L140 210L140 200L130 200L130 210L120 210L120 240L130 240L130 260L120 260L120 270L130 270L130 280L140 280L140 290L150 290L150 270L170 270L170 260L180 260L180 280L160 280L160 290L190 290L190 260L200 260L200 290L220 290L220 280L210 280L210 260L220 260L220 250L230 250L230 260L240 260L240 270L250 270L250 290L260 290L260 270L290 270L290 260L250 260L250 240L260 240L260 230L270 230L270 240L280 240L280 230L290 230L290 210L280 210L280 230L270 230L270 220L260 220L260 230L250 230L250 210L260 210L260 180L240 180L240 160L260 160L260 150L250 150L250 140L260 140L260 130L280 130L280 160L290 160L290 130L280 130L280 120L230 120L230 130L220 130L220 120L200 120L200 110L210 110L210 90L200 90L200 110L190 110L190 60L180 60L180 50L210 50L210 40L180 40L180 50L170 50L170 40L130 40M220 40L220 110L290 110L290 40L220 40z"/>
<path style="fill:#ffffff; stroke:none;" d="M50 50L50 100L100 100L100 50L50 50M130 50L130 110L140 110L140 90L150 90L150 80L180 80L180 60L170 60L170 50L130 50M230 50L230 100L280 100L280 50L230 50z"/>
<path style="fill:#010101; stroke:none;" d="M60 60L60 90L90 90L90 60L60 60M160 60L160 70L170 70L170 60L160 60M200 60L200 80L210 80L210 60L200 60M240 60L240 90L270 90L270 60L240 60M140 70L140 80L150 80L150 70L140 70M160 100L160 110L170 110L170 100L160 100M60 120L60 130L50 130L50 140L40 140L40 160L50 160L50 150L60 150L60 140L70 140L70 120L60 120z"/>
<path style="fill:#ffffff; stroke:none;" d="M100 130L100 140L90 140L90 150L100 150L100 140L120 140L120 130L100 130M230 130L230 140L250 140L250 130L230 130z"/>
<path style="fill:#010101; stroke:none;" d="M130 150L130 160L120 160L120 170L130 170L130 160L140 160L140 150L130 150z"/>
<path style="fill:#afecd8; stroke:none;" d="M152 153C152 156.415 151.061 161.551 152.603 164.682C155.738 171.043 159.885 163.498 160 160C159.126 162.052 159.047 163.747 159 166L153 166C153 161.737 153.661 156.959 152 153z"/>
<path style="fill:#27639e; stroke:none;" d="M153 153C163.988 157.611 183.043 154 195 154L195 195L183 195C200.319 202.267 196 179.165 196 169C196 165.269 197.423 157.698 194.972 154.603C192.853 151.927 186.98 153 184 153L153 153z"/>
<path style="fill:#6ea4c9; stroke:none;" d="M195 153L196 154L195 153z"/>
<path style="fill:#011a4f; stroke:none;" d="M153 154L153 166L159 166L159 159C165.46 159 183.658 155.865 188.397 160.603C193.135 165.342 190 183.54 190 190L183 190L183 195L195 195L195 154L153 154z"/>
<path style="fill:#27639e; stroke:none;" d="M159 159C167.128 162.411 180.186 160 189 160C180.872 156.589 167.814 159 159 159M189 160L189 190C191.731 183.492 191.731 166.508 189 160z"/>
<path style="fill:#ffea08; stroke:none;" d="M178.148 164.086C173.106 166.592 176.879 174.385 181.852 171.914C186.894 169.408 183.121 161.615 178.148 164.086z"/>
<path style="fill:#ffffff; stroke:none;" d="M60 170L60 190L70 190L70 180L80 180L80 170L60 170z"/>
<path style="fill:#45dbf9; stroke:none;" d="M153 170C155.052 170.874 156.747 170.953 159 171C156.948 170.126 155.253 170.047 153 170z"/>
<path style="fill:#010101; stroke:none;" d="M280 170L280 180L270 180L270 190L290 190L290 170L280 170z"/>
<path style="fill:#afecd8; stroke:none;" d="M152 171L152 196C154.413 190.25 154.413 176.75 152 171z"/>
<path style="fill:#04b2f5; stroke:none;" d="M153 171L153 195L178 195L178 190L159 190L159 171L153 171z"/>
<path style="fill:#afecd8; stroke:none;" d="M159 171C159.003 174.306 158.399 177.727 161 180C160.282 176.993 160.195 173.82 159 171z"/>
<path style="fill:#f7f3ab; stroke:none;" d="M183 171L184 172L183 171z"/>
<path style="fill:#afecd8; stroke:none;" d="M165 176L168 175C166.234 174.599 166.443 174.711 165 176z"/>
<path style="fill:#23cc3f; stroke:none;" d="M160 189L179 189L179 195L182 195C182.709 190.556 184.606 189.335 189 189C188.181 178.361 181.439 182.919 175 180.839C172.311 179.97 170.747 177.073 168 176.331C160.63 174.339 160.003 184.494 160 189z"/>
<path style="fill:#9ae9c8; stroke:none;" d="M168 175L169 176L168 175M164 176L165 177L164 176z"/>
<path style="fill:#afecd8; stroke:none;" d="M169 176L170 177L169 176z"/>
<path style="fill:#60e086; stroke:none;" d="M163 177L164 178L163 177z"/>
<path style="fill:#afecd8; stroke:none;" d="M170 177L171 178L170 177z"/>
<path style="fill:#9ae9c8; stroke:none;" d="M171 178L172 179L171 178M172 179L173 180L172 179z"/>
<path style="fill:#6de2ac; stroke:none;" d="M180 179L181 180L180 179z"/>
<path style="fill:#60e086; stroke:none;" d="M182 179L183 180L182 179z"/>
<path style="fill:#6de2ac; stroke:none;" d="M159 180L160 181L159 180z"/>
<path style="fill:#9ae9c8; stroke:none;" d="M173 180L174 181L173 180z"/>
<path style="fill:#19c969; stroke:none;" d="M159 181L159 190L179 190C173.531 187.705 165.901 189 160 189C159.993 186.165 160.098 183.613 159 181z"/>
<path style="fill:#9ae9c8; stroke:none;" d="M174 181L175 182L174 181z"/>
<path style="fill:#afecd8; stroke:none;" d="M177 181L178 182L177 181z"/>
<path style="fill:#9ae9c8; stroke:none;" d="M185 181L186 182L185 181z"/>
<path style="fill:#6de2ac; stroke:none;" d="M175.667 182.333C175.222 182.778 176.278 182.722 176.333 182.667C176.778 182.222 175.722 182.278 175.667 182.333z"/>
<path style="fill:#60e086; stroke:none;" d="M186 182L187 183L186 182z"/>
<path style="fill:#afecd8; stroke:none;" d="M188 183L189 184L188 183z"/>
<path style="fill:#19c969; stroke:none;" d="M183 189C185.052 189.874 186.747 189.953 189 190C186.948 189.126 185.253 189.047 183 189z"/>
<path style="fill:#0bc1b3; stroke:none;" d="M178 190L178 195C178.83 192.969 178.83 192.031 178 190z"/>
<path style="fill:#19c969; stroke:none;" d="M182 190L182 195C182.83 192.97 182.83 192.03 182 190z"/>
<path style="fill:#45dbf9; stroke:none;" d="M153 195C160.169 198.008 171.239 196 179 196C171.831 192.992 160.761 195 153 195z"/>
<path style="fill:#60e086; stroke:none;" d="M179 195C180.506 195.683 181.315 195.826 183 196C181.494 195.317 180.685 195.174 179 195z"/>
<path style="fill:#6ea4c9; stroke:none;" d="M195 195L196 196L195 195z"/>
<path style="fill:#ffffff; stroke:none;" d="M210 210L210 240L240 240L240 210L210 210z"/>
<path style="fill:#010101; stroke:none;" d="M40 220L40 290L110 290L110 220L40 220M220 220L220 230L230 230L230 220L220 220z"/>
<path style="fill:#ffffff; stroke:none;" d="M50 230L50 280L100 280L100 230L50 230z"/>
<path style="fill:#010101; stroke:none;" d="M60 240L60 270L90 270L90 240L60 240z"/>
<path style="fill:#ffffff; stroke:none;" d="M130 260L130 270L140 270L140 260L130 260z"/>
<path style="fill:#010101; stroke:none;" d="M230 280L230 290L240 290L240 280L230 280M280 280L280 290L290 290L290 280L280 280z"/>
</svg>
